X:1810
T:Maxwell's Rant
P:Maxwell's Rant
C:Traditional?
R:Reel (8x32)
B:RSCDS 18-10
Z:Anselm Lingnau <anselm@strathspey.org>
M:2/4
L:1/8
K:F
d/e/|"F"fF AF|"C"EG "C7"Gd/e/|"F"fF "C/E"A[cG]|"Dm"[f2A2] "Bb"fd/e/|
     "F"fF AF|"C"EG "C7"GF/E/|"Bb"DF "C7"EG|"F"F2 F||
c|"Dm"f>g af|"C"g/f/e/d/ cc|"F"f>g "G7"fa|"C"g2 gc|
  "Dm"f>g af|"C"g/f/e/d/ cf/g/|"F"af "C7"ge|"F"f3|]

